src/icons/svg/zip.svg

<?xml version="1.0" encoding="UTF-8" standalone="no"?>
<svg width="128px" height="128px" viewBox="0 0 128 128" version="1.1" xmlns="http://www.w3.org/2000/svg" xmlns:xlink="http://www.w3.org/1999/xlink">
    <!-- Generator: Sketch 40 (33762) - http://www.bohemiancoding.com/sketch -->
    <title>zip</title>
    <desc>Created with Sketch.</desc>
    <defs></defs>
    <g id="Page-1" stroke="none" stroke-width="1" fill="none" fill-rule="evenodd">
        <g id="zip" fill="#000000">
            <g id="Shape">
                <path d="M78.5265874,116.79259 C78.7051608,116.800579 78.8754284,116.816557 79.0540017,116.816557 L119.28699,116.816557 C123.99837,116.812153 127.816556,113.139529 127.821135,108.607761 L127.821135,18.8942113 C127.816556,14.362444 123.99837,10.6898196 119.28699,10.6854155 L79.0540017,10.6854155 C78.8754283,10.6854155 78.7010079,10.7013937 78.5265874,10.7093828 L78.5265874,0 L0,10.0822387 L0,117.487641 L78.5265874,127.829526 L78.5265874,116.79259 L78.5265874,116.79259 L78.5265874,116.79259 Z M78.5265874,15.4309383 C78.7010079,15.406971 78.8754284,15.3790092 79.0540017,15.3790092 L119.28699,15.3790092 C121.305284,15.3790092 122.945667,16.9568556 122.945667,18.8982059 L122.945667,108.611756 C122.943379,110.554442 121.306673,112.128751 119.28699,112.130953 L79.0540017,112.130953 C78.8754283,112.130953 78.7010079,112.102991 78.5265874,112.079023 L78.5265874,15.4349328 L78.5265874,15.4309383 L78.5265874,15.4309383 Z M30.2619516,75.7565999 L11.5408211,75.2972269 L11.5408211,72.3692233 L22.8407758,55.6959806 L22.8407758,55.5481824 L12.5748853,55.7119588 L12.5748853,51.2021143 L30.0792254,50.762714 L30.0792254,54.0262596 L18.6962132,70.7594205 L18.6962132,70.9032243 L30.2619516,71.0789843 L30.2619516,75.7526054 L30.2619516,75.7565999 L30.2619516,75.7565999 Z M39.6806569,75.9882837 L33.8583355,75.84448 L33.8583355,50.6708394 L39.6806569,50.5270357 L39.6806569,75.9882837 L39.6806569,75.9882837 L39.6806569,75.9882837 Z M61.9358784,64.3561603 C59.768081,66.2775378 56.5828311,67.1163929 52.9158483,67.0924256 C52.2144184,67.0963284 51.5135868,67.0522774 50.8186499,66.9606056 L50.8186499,76.2639075 L44.8219079,76.1161093 L44.8219079,50.7427413 C46.6740872,50.3912212 49.2945471,50.0956246 53.0404345,49.9997554 C56.8776848,49.9038863 59.647648,50.5390194 61.5205916,51.9131438 C63.3270893,53.2193609 64.5521855,55.4123678 64.5521855,58.024802 C64.5521855,60.6372362 63.6260959,62.8582048 61.9400312,64.3561603 L61.9358784,64.3561603 L61.9358784,64.3561603 Z M53.3602053,54.4496816 C52.5044694,54.4408546 51.6508602,54.5334258 50.8186499,54.7253054 L50.8186499,62.406821 C51.3419113,62.5226629 51.9856059,62.5586139 52.8784726,62.5586138 C56.1800029,62.5546192 58.2398256,60.9448164 58.2398256,58.2445021 C58.2398256,55.8198117 56.4665508,54.4017471 53.3643581,54.4536762 L53.3602053,54.4496816 L53.3602053,54.4496816 Z M93.206977,17.3842722 L102.771033,17.3842722 L102.771033,21.1790927 L93.206977,21.1790927 L93.206977,17.3842722 L93.206977,17.3842722 L93.206977,17.3842722 Z M83.6387684,23.0645192 L93.2028242,23.0645192 L93.2028242,26.8633342 L83.6387684,26.8633342 L83.6387684,23.0645192 L83.6387684,23.0645192 L83.6387684,23.0645192 Z M93.206977,29.2800357 L102.771033,29.2800357 L102.771033,33.0788507 L93.206977,33.0788507 L93.206977,29.2800357 L93.206977,29.2800357 L93.206977,29.2800357 Z M93.206977,41.2796574 L102.771033,41.2796574 L102.771033,45.0744779 L93.206977,45.0744779 L93.206977,41.2796574 L93.206977,41.2796574 L93.206977,41.2796574 Z M83.6387684,35.1839774 L93.2028242,35.1839774 L93.2028242,38.9787979 L83.6387684,38.9787979 L83.6387684,35.1839774 L83.6387684,35.1839774 L83.6387684,35.1839774 Z M93.1114611,82.2477402 C95.6233937,82.2477404 98.0323834,81.2876474 99.8081985,79.5787828 C101.584014,77.8699183 102.581103,75.5523461 102.580001,73.1361765 L100.831643,57.8730092 C100.831643,52.8398789 98.3399223,48.7614456 93.1073081,48.7614456 C87.8746939,48.7614456 85.3871259,52.8398789 85.3871259,57.8730092 L83.6346154,73.1361765 C83.6335131,75.5530384 84.6311721,77.8712163 86.4078856,79.5801958 C88.1845991,81.2891754 90.594656,82.2488004 93.1073081,82.2477402 L93.1114611,82.2477402 L93.1114611,82.2477402 Z M89.9760454,65.498601 L96.2468766,65.498601 L96.2468766,78.2412087 L89.9760454,78.2412087 L89.9760454,65.498601 L89.9760454,65.498601 L89.9760454,65.498601 Z"></path>
            </g>
        </g>
    </g>
</svg>

<svg width="128" height="128" xmlns="http://www.w3.org/2000/svg"><path d="M78.527 116.793c.178.008.348.024.527.024h40.233c4.711-.005 8.53-3.677 8.534-8.21V18.895c-.004-4.532-3.823-8.204-8.534-8.209H79.054c-.179 0-.353.016-.527.024V0L0 10.082v107.406l78.527 10.342v-11.037zm0-101.362c.174-.024.348-.052.527-.052h40.233c2.018 0 3.659 1.578 3.659 3.52v89.713c-.003 1.942-1.64 3.517-3.659 3.519H79.054c-.179 0-.353-.028-.527-.052V15.431zM30.262 75.757l-18.721-.46V72.37l11.3-16.673v-.148l-10.266.164v-4.51l17.504-.44v3.264L18.696 70.76v.144l11.566.176v4.678zm9.419.231l-5.823-.144V50.671l5.823-.144v25.461zm22.255-11.632c-2.168 1.922-5.353 2.76-9.02 2.736-.702.004-1.402-.04-2.097-.131v9.303l-5.997-.148V50.743c1.852-.352 4.473-.647 8.218-.743 3.838-.096 6.608.539 8.48 1.913 1.807 1.306 3.032 3.5 3.032 6.112s-.926 4.833-2.612 6.331h-.004zM53.36 54.45c-.856-.01-1.71.083-2.541.275v7.682c.523.116 1.167.152 2.06.152 3.301-.004 5.36-1.614 5.36-4.314 0-2.425-1.772-3.843-4.875-3.791l-.004-.004zm39.847-37.066h9.564v3.795h-9.564v-3.795zm-9.568 5.68h9.564v3.8h-9.564v-3.8zm9.568 6.216h9.564v3.799h-9.564V29.28zm0 12h9.564v3.794h-9.564V41.28zm-9.568-6.096h9.564v3.795h-9.564v-3.795zm9.472 47.064c2.512 0 4.921-.96 6.697-2.67 1.776-1.708 2.773-4.026 2.772-6.442l-1.748-15.263c0-5.033-2.492-9.112-7.725-9.112-5.232 0-7.72 4.079-7.72 9.112l-1.752 15.263c-.001 2.417.996 4.735 2.773 6.444 1.777 1.71 4.187 2.669 6.7 2.668h.003zm-3.135-16.75h6.27v12.743h-6.27V65.5z" fill-rule="evenodd"/></svg>
